X: 362
T: I will have a Wife of my own
P: Longways &c.
%R: jig
B: "Caledonian Country Dances" printed by John Walsh for John Johnson, London
S: 1: CCDTB http://imslp.org/wiki/Caledonian_Country_Dances_with_a_Thorough_Bass_(Various) p.75
S: 6: CCDM2 http://imslp.org/wiki/The_Compleat_Country_Dancing-Master_(Various) V.2 #13 (25)
Z: 2013 John Chambers <jc:trillian.mit.edu>
N: The 2nd part has initial repeat but no final repeat.
N: The two versions differ only in the first note of bar 9.
N: The dances are identical except for minor spelling differences.
N: 6-b phrases.
M: 6/4
L: 1/4
K: Em
% - - - - - - - - - - - - - - - - - - - - - - - - -
V: 1
|: EFE G2B | G3 EFE | G2c BGE | EFE G2A | G3 DED | D2c AFD :|
|: g>ag f>gf | e3 E>FE | [B2G2]c BGE | g>ag f>gf | d3 D>ED | D2A AFD :|
% - - - - - - - - - - - - - - - - - - - - - - - - -
V: 2 clef=bass middle=d
|: c3 B2G | G2A c3 | B2G G2z | c3 B2G | g2G z3 | g3 d3 :|
|: g3 B3 | c3 zzc | B2A G2z | zzB d3 | B3 zzB | g3 d3 :|
% - - - - - - - - - - - - - - - - - - - - - - - - -
%%begintext align
%% First all lead up forward & back again .|
%% that again :|
%% First Cu. go Back to Back then Right Hands one turn and a half,
%% then clap hands first your own, then one of each others, then
%% walk out to the Wall, then back again, & Back to Back as before
%% the Men on the Wo. side & Wo on the Men's. and in the last Part,
%% after clapping Hands, then lead to the Wall and back again.
%%endtext

%%sep 1 1 500
%%sep 1 1 500
